icons/svg/3d-object_24.svg

<?xml version="1.0" encoding="UTF-8"?>
<svg width="24px" height="24px" viewBox="0 0 24 24" version="1.1" xmlns="http://www.w3.org/2000/svg" xmlns:xlink="http://www.w3.org/1999/xlink">
    <!-- Generator: Sketch 59.1 (86144) - https://sketch.com -->
    <title>3d-object_24</title>
    <desc>Created with Sketch.</desc>
    <g id="New-Icon" stroke="none" stroke-width="1" fill="none" fill-rule="evenodd">
        <g id="3d-object_24" fill="#171B1F">
            <path d="M12.5,20.7673643 L12.5,9.86336427 L21,6.53736427 L21,17.4413643 L12.5,20.7673643 Z M3,6.92036427 L4.859,7.56736427 L11.5,9.87736427 L11.5,20.7673643 L3,17.4413643 L3,6.92036427 Z M12.01,3.03236427 L20.057,5.83136427 L11.989,8.98836427 L3.942,6.18936427 L12.01,3.03236427 Z M22,5.79436427 C22,5.78436427 21.992,5.77636427 21.991,5.76736427 C21.984,5.68436427 21.958,5.60836427 21.915,5.53936427 C21.898,5.51436427 21.877,5.49636427 21.856,5.47536427 C21.831,5.44736427 21.813,5.41336427 21.782,5.39136427 C21.759,5.37536427 21.73,5.37436427 21.706,5.36336427 C21.69,5.35536427 21.681,5.33736427 21.664,5.33136427 L12.164,2.02736427 C12.051,1.98836427 11.929,1.99136427 11.818,2.03436427 L2.318,5.75136427 C2.302,5.75736427 2.295,5.77336427 2.281,5.78136427 C2.258,5.79236427 2.231,5.79436427 2.21,5.80936427 C2.175,5.83436427 2.155,5.87136427 2.128,5.90436427 C2.111,5.92436427 2.092,5.93936427 2.078,5.96236427 C2.031,6.03936427 2,6.12436427 2,6.21736427 L2,17.7823643 C2,17.9883643 2.126,18.1733643 2.318,18.2483643 L11.818,21.9653643 C11.876,21.9883643 11.938,21.9993643 12,21.9993643 C12.062,21.9993643 12.124,21.9883643 12.182,21.9653643 L21.682,18.2483643 C21.874,18.1733643 22,17.9883643 22,17.7823643 L22,5.80436427 C22,5.80236427 21.999,5.80036427 21.999,5.79836427 C21.999,5.79736427 22,5.79536427 22,5.79436427 L22,5.79436427 Z" id="fill"></path>
        </g>
    </g>
</svg>

<svg width="24" height="24" xmlns="http://www.w3.org/2000/svg"><path d="M12.5 20.767V9.863L21 6.537v10.904l-8.5 3.326zM3 6.92l1.859.647 6.641 2.31v10.89L3 17.441V6.921zm9.01-3.888l8.047 2.8-8.068 3.156L3.942 6.19l8.068-3.157zM22 5.794c0-.01-.008-.018-.009-.027a.506.506 0 00-.076-.228c-.017-.025-.038-.043-.059-.064-.025-.028-.043-.062-.074-.084-.023-.016-.052-.017-.076-.028-.016-.008-.025-.026-.042-.032l-9.5-3.304a.502.502 0 00-.346.007l-9.5 3.717c-.016.006-.023.022-.037.03-.023.011-.05.013-.071.028-.035.025-.055.062-.082.095-.017.02-.036.035-.05.058A.487.487 0 002 6.217v11.565a.5.5 0 00.318.466l9.5 3.717a.494.494 0 00.364 0l9.5-3.717a.5.5 0 00.318-.466V5.804l-.001-.006.001-.004z" fill="#171B1F" fill-rule="evenodd"/></svg>
